X:19
T:Polska ur Petter Dufvas notbok (Ma6-19)
R:Polska
O:Verkelbäck, Småland
B:Petter Dufvas notbok
S:Petter Dufva
N:Smus Ma6 bild 21
M:3/4
L:1/8
K:G
dg fg a/g/f/e/|dd Cd e/d/c/B/|cc A,c d/c/B/A/|B,d A,c G,B|AG/F/ G2 G,2:|
|:BG EG c/B/A/G/|AF DA c/B/A/G/|F/D/E/F/ G/A/B/^c/ df|ed/^c/ d2 D2:|
|:dg fg a/g/f/e/|dd Cd e/d/c/B/|cc A,c d/c/B/A/|B,d A,c G,B|AG/F/ G2 G,2:|

